common/src/main/resources/glyphs/plugins/resharper/FeaturesInspections/Embedded.svg

<svg xmlns="http://www.w3.org/2000/svg" width="16" height="16" fill="#8D6E63" data-big="true" viewBox="0 0 24 24"><path d="M21 2H3a2 2 0 0 0-2 2v16a2 2 0 0 0 2 2h18a2 2 0 0 0 2-2V4a2 2 0 0 0-2-2M11 17.5 9.5 19 5 14.5 9.5 10l1.5 1.5-3 3zm3.5 1.5L13 17.5l3-3-3-3 1.5-1.5 4.5 4.5zM21 7H3V4h18z"/></svg>

<!--
  - The MIT License (MIT)
  -
  - Copyright (c) 2015-2024 Elior "Mallowigi" Boukhobza
  -
  - Permission is hereby granted, free of charge, to any person obtaining a copy
  - of this software and associated documentation files (the "Software"), to deal
  - in the Software without restriction, including without limitation the rights
  - to use, copy, modify, merge, publish, distribute, sublicense, and/or sell
  - copies of the Software, and to permit persons to whom the Software is
  - furnished to do so, subject to the following conditions:
  -
  - The above copyright notice and this permission notice shall be included in all
  - copies or substantial portions of the Software.
  -
  - THE SOFTWARE IS PROVIDED "AS IS", WITHOUT WARRANTY OF ANY KIND, EXPRESS OR
  - IMPLIED, INCLUDING BUT NOT LIMITED TO THE WARRANTIES OF MERCHANTABILITY,
  - FITNESS FOR A PARTICULAR PURPOSE AND NONINFRINGEMENT. IN NO EVENT SHALL THE
  - AUTHORS OR COPYRIGHT HOLDERS BE LIABLE FOR ANY CLAIM, DAMAGES OR OTHER
  - LIABILITY, WHETHER IN AN ACTION OF CONTRACT, TORT OR OTHERWISE, ARISING FROM,
  - OUT OF OR IN CONNECTION WITH THE SOFTWARE OR THE USE OR OTHER DEALINGS IN THE
  - SOFTWARE.
  -->


<svg data-big="true" xmlns="http://www.w3.org/2000/svg" version="1.1" width="16px" height="16px" fill="#8D6E63"
     viewBox="0 0 24 24">
  <path
    d="M21,2H3A2,2 0 0,0 1,4V20A2,2 0 0,0 3,22H21A2,2 0 0,0 23,20V4A2,2 0 0,0 21,2M11,17.5L9.5,19L5,14.5L9.5,10L11,11.5L8,14.5L11,17.5M14.5,19L13,17.5L16,14.5L13,11.5L14.5,10L19,14.5L14.5,19M21,7H3V4H21V7Z"/>
</svg>
